assets/icons/crosspath.svg

<svg width="18" height="18" viewBox="0 0 18 18" fill="none" xmlns="http://www.w3.org/2000/svg">
<path d="M10.3777 1.93658L9.67522 2.63905L10.3777 1.93657C10.086 1.64482 9.69026 1.48096 9.27775 1.48096C8.86524 1.48096 8.46954 1.64482 8.17779 1.93657L8.8849 2.64368L8.17779 1.93658C7.88603 2.22834 7.7222 2.62402 7.7222 3.03651V7.59207H3.16664C2.75415 7.59207 2.35847 7.7559 2.0667 8.04766L2.76918 8.75015L2.0667 8.04766C1.77494 8.33941 1.61108 8.73511 1.61108 9.14762C1.61108 9.56013 1.77494 9.95584 2.0667 10.2476L2.7738 9.54048L2.0667 10.2476C2.35847 10.5393 2.75415 10.7032 3.16664 10.7032H7.7222V15.2587C7.7222 15.6712 7.886 16.0669 8.17779 16.3587C8.46959 16.6505 8.8653 16.8143 9.27775 16.8143C9.6902 16.8143 10.0859 16.6505 10.3777 16.3587C10.6695 16.0669 10.8333 15.6712 10.8333 15.2587V10.7032H15.3889C15.8013 10.7032 16.197 10.5394 16.4888 10.2476C16.7806 9.95579 16.9444 9.56007 16.9444 9.14762C16.9444 8.73518 16.7806 8.33946 16.4888 8.04767C16.197 7.75587 15.8013 7.59207 15.3889 7.59207H10.8333V3.03651C10.8333 2.62402 10.6695 2.22834 10.3777 1.93658Z" fill="white" stroke="white" stroke-width="2"/>
</svg>

<svg xmlns="http://www.w3.org/2000/svg" width="18" height="18" fill="none" data-c="1"><path fill="#fff" stroke="#fff" stroke-width="2" d="m10.378 1.937-.703.702.703-.702a1.556 1.556 0 0 0-2.2 0l.707.707-.707-.707a1.56 1.56 0 0 0-.456 1.1v4.555H3.167c-.413 0-.809.164-1.1.456l.702.702-.702-.702a1.556 1.556 0 0 0 0 2.2l.707-.708-.707.708c.291.291.687.455 1.1.455h4.555v4.556a1.556 1.556 0 1 0 3.111 0v-4.556h4.556a1.556 1.556 0 0 0 0-3.11h-4.556V3.036c0-.413-.164-.809-.455-1.1Z"/></svg>
